src/assets/subject_icons/sat.svg

<svg fill="none" height="80" viewBox="0 0 80 80" width="80" xmlns="http://www.w3.org/2000/svg"><path d="m40 80c22.0914 0 40-17.9086 40-40s-17.9086-40-40-40-40 17.9086-40 40 17.9086 40 40 40z" fill="#54defd"/><path d="m54.9334 58.1334h-27.7333c-.1415 0-.2771-.0562-.3771-.1563-.1001-.1-.1563-.2356-.1563-.3771v-34.1333c0-.1415.0562-.2771.1563-.3771.1-.1001.2356-.1563.3771-.1563h27.7333c.1415 0 .2771.0562.3771.1563.1001.1.1562.2356.1562.3771v34.1333c0 .1415-.0561.2771-.1562.3771-.1.1001-.2356.1563-.3771.1563z" fill="#fff"/><path d="m64.6107 21.5178-1.3237-1.3237c-.6124-.6123-1.6052-.6123-2.2175 0l-2.5984 2.5984c-.6123.6124-.6123 1.6052 0 2.2175l1.3237 1.3237c.6123.6123 1.6051.6123 2.2175 0l2.5984-2.5984c.6123-.6123.6123-1.6051 0-2.2175z" fill="#f44747"/><path d="m63.1215 25.2172-3.5412-3.5412-18.0453 18.0454 3.5411 3.5412z" fill="#fed766"/><path d="m41.5361 39.7227 3.5413 3.5413-4.992 2.1333c-.0952.0344-.1983.0409-.2972.0189-.0988-.0221-.1893-.0718-.2609-.1434s-.1213-.1622-.1434-.261-.0155-.2019.0188-.2971z" fill="#e3f2fd"/><g fill="#343440"><path d="m63.1226 25.2168-3.5412-3.5411-1.1502 1.1502 3.5412 3.5412z"/><path d="m40.4373 42.2933 2.1653 2.0267-2.8907 1.2373c-.0656.0282-.1382.0361-.2084.0226s-.1347-.0477-.1852-.0982c-.0505-.0506-.0848-.1151-.0983-.1853-.0134-.0701-.0056-.1427.0226-.2084z"/></g></svg>

<svg width="80" height="80" viewBox="0 0 80 80" fill="none" xmlns="http://www.w3.org/2000/svg">
<path d="M40 80C62.0914 80 80 62.0914 80 40C80 17.9086 62.0914 0 40 0C17.9086 0 0 17.9086 0 40C0 62.0914 17.9086 80 40 80Z" fill="#54DEFD"/>
<path d="M54.9334 58.1334H27.2001C27.0586 58.1334 26.923 58.0772 26.823 57.9771C26.7229 57.8771 26.6667 57.7415 26.6667 57.6V23.4667C26.6667 23.3252 26.7229 23.1896 26.823 23.0896C26.923 22.9895 27.0586 22.9333 27.2001 22.9333H54.9334C55.0749 22.9333 55.2105 22.9895 55.3105 23.0896C55.4106 23.1896 55.4667 23.3252 55.4667 23.4667V57.6C55.4667 57.7415 55.4106 57.8771 55.3105 57.9771C55.2105 58.0772 55.0749 58.1334 54.9334 58.1334Z" fill="white"/>
<path d="M64.6107 21.5178L63.287 20.1941C62.6746 19.5818 61.6818 19.5818 61.0695 20.1941L58.4711 22.7925C57.8588 23.4049 57.8588 24.3977 58.4711 25.01L59.7948 26.3337C60.4071 26.946 61.3999 26.946 62.0123 26.3337L64.6107 23.7353C65.223 23.123 65.223 22.1302 64.6107 21.5178Z" fill="#F44747"/>
<path d="M63.1215 25.2172L59.5803 21.676L41.535 39.7214L45.0761 43.2626L63.1215 25.2172Z" fill="#FED766"/>
<path d="M41.5361 39.7227L45.0774 43.264L40.0854 45.3973C39.9902 45.4317 39.8871 45.4382 39.7882 45.4162C39.6894 45.3941 39.5989 45.3444 39.5273 45.2728C39.4557 45.2012 39.406 45.1106 39.3839 45.0118C39.3618 44.913 39.3684 44.8099 39.4027 44.7147L41.5361 39.7227Z" fill="#E3F2FD"/>
<path d="M63.1226 25.2168L59.5814 21.6757L58.4312 22.8259L61.9724 26.3671L63.1226 25.2168Z" fill="#343440"/>
<path d="M40.4373 42.2933L42.6026 44.32L39.7119 45.5573C39.6463 45.5855 39.5737 45.5934 39.5035 45.5799C39.4333 45.5664 39.3688 45.5322 39.3183 45.4817C39.2678 45.4311 39.2335 45.3666 39.22 45.2964C39.2066 45.2263 39.2144 45.1537 39.2426 45.088L40.4373 42.2933Z" fill="#343440"/>
</svg>
